X: 18339
T: Humours Of Westport, The
R: reel
M: 4/4
K: Cmajor
EG ~G2 A2 GF|EGGE FAGF|EG ~G2 A2 GE|FADE FFGF|
EG ~G2 A2 GF|EGGB cAGf|ecdB cGEG|1 FADE FAGF:|2 FADE FGAB||
~c3 B cGEG|c2 Bd cedB|~c3 B cGEG|FADE FGAB|
~c3 B cGEG|c2 Bd cedf|ecdB cGEG|FADE FAGF||

